X: 40
T: Pollonesse #40
M: 3/4
L: 1/16
K: Bb
Q:120
B2ba b2f2 d2B2|E2gf g2E2 D2^f2|C2ed e2C2 B,2d2|d2cB A2B2 c2F2|
B2ba b2f2 d2B2|E2g^f g2E2 D2f2|C2ed e2C2 B,2d2|ecBA B4B,4:|
|:d2dc d2B2 dfga|bagf =efed c2B2|A2c'2 B2b2 c2a2|bgf=e f2g2 f=edc:|
B2Bc d2de f4|fbag fedc B4|B2gf e2ed c2cB|FBAB FEDC B,4|
FEDE F2e2 d2e2|FEDE F2B2 A2B2|F2gf e2d2 c2B2|Fedc c6c2:|
|:cBAB c2f2 e2f2|Bbag fedc d2B2|FBAB dBAB fBAB|FBAB FEDC D2B,2|
FEDE F2e2 d2e2|FEDE F2B2 A2B2|FEDC Bgfe d2cB|Fedc c4 B4:|
